img/illustrations/17 Государственный реестр плательщиков.svg

<svg width="145" height="145" viewBox="0 0 145 145" fill="none" xmlns="http://www.w3.org/2000/svg">
<path d="M115 121.03H5" stroke="#007B64" stroke-width="2" stroke-linecap="round" stroke-linejoin="round"/>
<path d="M140 121.03H125" stroke="#007B64" stroke-width="2" stroke-linecap="round" stroke-linejoin="round"/>
<path d="M96.5801 23H33.5801C29.7141 23 26.5801 26.134 26.5801 30V114C26.5801 117.866 29.7141 121 33.5801 121H96.5801C100.446 121 103.58 117.866 103.58 114V30C103.58 26.134 100.446 23 96.5801 23Z" fill="white"/>
<path d="M41.1999 120.21C41.1999 120.21 56.0799 109.82 74.4299 109.53C92.7799 109.24 92.2899 102.81 103.82 99.3V115L102.65 118.57L99.8499 120.69L40.6899 121L41.1999 120.21Z" fill="#EBEBEB"/>
<path d="M26.6101 34.2V29.07C26.6101 27.4601 27.2496 25.9162 28.388 24.7779C29.5263 23.6395 31.0702 23 32.6801 23H97.7501C99.36 23 100.904 23.6395 102.042 24.7779C103.181 25.9162 103.82 27.4601 103.82 29.07V115C103.802 116.598 103.154 118.124 102.018 119.247C100.881 120.37 99.3479 121 97.7501 121H32.6801C31.0823 121 29.5489 120.37 28.4125 119.247C27.2762 118.124 26.6285 116.598 26.6101 115V40" stroke="#007B64" stroke-width="2" stroke-linecap="round" stroke-linejoin="round"/>
<path d="M47.02 70.02H90" stroke="#007B64" stroke-width="2" stroke-linecap="round" stroke-linejoin="round"/>
<path d="M47.02 78.77H90" stroke="#007B64" stroke-width="2" stroke-linecap="round" stroke-linejoin="round"/>
<path d="M47.02 87.24H90" stroke="#007B64" stroke-width="2" stroke-linecap="round" stroke-linejoin="round"/>
<path d="M30.9499 39.92H22.2699C20.834 39.92 19.6699 41.0841 19.6699 42.52V45.13C19.6699 46.566 20.834 47.73 22.2699 47.73H30.9499C32.3859 47.73 33.5499 46.566 33.5499 45.13V42.52C33.5499 41.0841 32.3859 39.92 30.9499 39.92Z" fill="white" stroke="#007B64" stroke-width="2" stroke-miterlimit="10"/>
<path d="M30.9499 54.01H22.2699C20.834 54.01 19.6699 55.1741 19.6699 56.61V59.22C19.6699 60.6559 20.834 61.82 22.2699 61.82H30.9499C32.3859 61.82 33.5499 60.6559 33.5499 59.22V56.61C33.5499 55.1741 32.3859 54.01 30.9499 54.01Z" fill="white" stroke="#007B64" stroke-width="2" stroke-miterlimit="10"/>
<path d="M30.9499 68.11H22.2699C20.834 68.11 19.6699 69.274 19.6699 70.71V73.32C19.6699 74.7559 20.834 75.92 22.2699 75.92H30.9499C32.3859 75.92 33.5499 74.7559 33.5499 73.32V70.71C33.5499 69.274 32.3859 68.11 30.9499 68.11Z" fill="white" stroke="#007B64" stroke-width="2" stroke-miterlimit="10"/>
<path d="M30.9499 82.21H22.2699C20.834 82.21 19.6699 83.374 19.6699 84.81V87.42C19.6699 88.8559 20.834 90.02 22.2699 90.02H30.9499C32.3859 90.02 33.5499 88.8559 33.5499 87.42V84.81C33.5499 83.374 32.3859 82.21 30.9499 82.21Z" fill="white" stroke="#007B64" stroke-width="2" stroke-miterlimit="10"/>
<path d="M30.9499 96.3101H22.2699C20.834 96.3101 19.6699 97.4741 19.6699 98.9101V101.52C19.6699 102.956 20.834 104.12 22.2699 104.12H30.9499C32.3859 104.12 33.5499 102.956 33.5499 101.52V98.9101C33.5499 97.4741 32.3859 96.3101 30.9499 96.3101Z" fill="white" stroke="#007B64" stroke-width="2" stroke-miterlimit="10"/>
<path d="M86.9699 43.55H49.1499C47.482 43.55 46.1299 44.9021 46.1299 46.57V56.7C46.1299 58.3679 47.482 59.7201 49.1499 59.7201H86.9699C88.6378 59.7201 89.9899 58.3679 89.9899 56.7V46.57C89.9899 44.9021 88.6378 43.55 86.9699 43.55Z" fill="#FFC463"/>
<path d="M114.15 34.09C115.013 33.5001 116.035 33.1863 117.08 33.19H120.08C121.459 33.19 122.782 33.7378 123.757 34.713C124.732 35.6882 125.28 37.0108 125.28 38.39V96.76L119.08 108.88L111.9 96.76V40.25" fill="white"/>
<path d="M124.83 51.17H119.69V96.76H124.83V51.17Z" fill="#EBEBEB"/>
<path d="M114.15 34.09C115.013 33.5001 116.035 33.1863 117.08 33.19H120.08C121.459 33.19 122.782 33.7378 123.757 34.713C124.732 35.6882 125.28 37.0108 125.28 38.39V96.76L119.08 108.88L111.9 96.76V40.25" stroke="#FFC463" stroke-width="2" stroke-linecap="round" stroke-linejoin="round"/>
<path d="M111.88 96.76H125.33" stroke="#FFC463" stroke-width="2" stroke-miterlimit="10" stroke-linecap="round"/>
<path d="M111.88 45.04H125.33" stroke="#FFC463" stroke-width="2" stroke-linecap="round" stroke-linejoin="round"/>
<path d="M125.33 51.17H111.88" stroke="#FFC463" stroke-width="2" stroke-linecap="round" stroke-linejoin="round"/>
</svg>

<svg width="145" height="145" fill="none" xmlns="http://www.w3.org/2000/svg"><path d="M115 121.03H5m135 0h-15" stroke="#007B64" stroke-width="2" stroke-linecap="round" stroke-linejoin="round"/><path d="M96.58 23h-63a7 7 0 00-7 7v84a7 7 0 007 7h63a7 7 0 007-7V30a7 7 0 00-7-7z" fill="#fff"/><path d="M41.2 120.21s14.88-10.39 33.23-10.68c18.35-.29 17.86-6.72 29.39-10.23V115l-1.17 3.57-2.8 2.12-59.16.31.51-.79z" fill="#EBEBEB"/><path d="M26.61 34.2v-5.13A6.07 6.07 0 0132.68 23h65.07a6.069 6.069 0 016.07 6.07V115a6.068 6.068 0 01-6.07 6H32.68a6.072 6.072 0 01-6.07-6V40m20.41 30.02H90m-42.98 8.75H90m-42.98 8.47H90" stroke="#007B64" stroke-width="2" stroke-linecap="round" stroke-linejoin="round"/><path d="M30.95 39.92h-8.68a2.6 2.6 0 00-2.6 2.6v2.61a2.6 2.6 0 002.6 2.6h8.68a2.6 2.6 0 002.6-2.6v-2.61a2.6 2.6 0 00-2.6-2.6zm0 14.09h-8.68a2.6 2.6 0 00-2.6 2.6v2.61a2.6 2.6 0 002.6 2.6h8.68a2.6 2.6 0 002.6-2.6v-2.61a2.6 2.6 0 00-2.6-2.6zm0 14.1h-8.68a2.6 2.6 0 00-2.6 2.6v2.61a2.6 2.6 0 002.6 2.6h8.68a2.6 2.6 0 002.6-2.6v-2.61a2.6 2.6 0 00-2.6-2.6zm0 14.1h-8.68a2.6 2.6 0 00-2.6 2.6v2.61a2.6 2.6 0 002.6 2.6h8.68a2.6 2.6 0 002.6-2.6v-2.61a2.6 2.6 0 00-2.6-2.6zm0 14.1h-8.68a2.6 2.6 0 00-2.6 2.6v2.61a2.6 2.6 0 002.6 2.6h8.68a2.6 2.6 0 002.6-2.6v-2.61a2.6 2.6 0 00-2.6-2.6z" fill="#fff" stroke="#007B64" stroke-width="2" stroke-miterlimit="10"/><path d="M86.97 43.55H49.15a3.02 3.02 0 00-3.02 3.02V56.7a3.02 3.02 0 003.02 3.02h37.82a3.02 3.02 0 003.02-3.02V46.57a3.02 3.02 0 00-3.02-3.02z" fill="#FFC463"/><path d="M114.15 34.09a5.16 5.16 0 012.93-.9h3a5.2 5.2 0 015.2 5.2v58.37l-6.2 12.12-7.18-12.12V40.25" fill="#fff"/><path d="M124.83 51.17h-5.14v45.59h5.14V51.17z" fill="#EBEBEB"/><path d="M114.15 34.09a5.16 5.16 0 012.93-.9h3a5.2 5.2 0 015.2 5.2v58.37l-6.2 12.12-7.18-12.12V40.25" stroke="#FFC463" stroke-width="2" stroke-linecap="round" stroke-linejoin="round"/><path d="M111.88 96.76h13.45" stroke="#FFC463" stroke-width="2" stroke-miterlimit="10" stroke-linecap="round"/><path d="M111.88 45.04h13.45m0 6.13h-13.45" stroke="#FFC463" stroke-width="2" stroke-linecap="round" stroke-linejoin="round"/></svg>
